src/assets/duotone/Receipt2.svg

<?xml version="1.0" encoding="UTF-8"?>
<svg width="24" height="24" viewBox="0 0 24 24" xmlns="http://www.w3.org/2000/svg">
 <path d="m20 7.04v9.92c0 1.52-0.14 2.6-0.5 3.37 0 0.01-0.01 0.03-0.02 0.04-0.22 0.28-0.51 0.42-0.85 0.42-0.53 0-1.17-0.35-1.86-1.09-0.82-0.88-2.08-0.81-2.8 0.15l-1.01 1.34c-0.4 0.54-0.93 0.81-1.46 0.81s-1.06-0.27-1.46-0.81l-1.02-1.35c-0.71-0.95-1.96-1.02-2.78-0.15l-0.01001 0.01c-1.13 1.21-2.13 1.39-2.71 0.67-0.01-0.01-0.02002-0.03-0.02002-0.04-0.36-0.77-0.5-1.85-0.5-3.37v-9.92c0-1.52 0.14-2.6 0.5-3.37 0-0.01 2e-5 -0.02 0.02002-0.03 0.57-0.73 1.58-0.55 2.71 0.66l0.01001 0.01c0.82 0.87 2.07 0.8 2.78-0.15l1.02-1.35c0.4-0.54 0.93-0.81 1.46-0.81s1.06 0.27 1.46 0.81l1.01 1.34c0.72 0.96 1.98 1.03 2.8 0.15 0.69-0.74 1.33-1.09 1.86-1.09 0.34 0 0.63 0.15 0.85 0.43 0.02 0.01 0.02 0.02 0.02 0.03 0.36 0.77 0.5 1.85 0.5 3.37z" opacity=".4"/>
 <path d="m16 11h-8c-0.41 0-0.75-0.34-0.75-0.75s0.34-0.75 0.75-0.75h8c0.41 0 0.75 0.34 0.75 0.75s-0.34 0.75-0.75 0.75z"/>
 <path d="m14 14.5h-6c-0.41 0-0.75-0.34-0.75-0.75s0.34-0.75 0.75-0.75h6c0.41 0 0.75 0.34 0.75 0.75s-0.34 0.75-0.75 0.75z"/>
</svg>

<svg width="24" height="24" viewBox="0 0 24 24"  xmlns="http://www.w3.org/2000/svg">
<path opacity="0.4" d="M20 7.04V16.96C20 18.48 19.86 19.56 19.5 20.33C19.5 20.34 19.49 20.36 19.48 20.37C19.26 20.65 18.97 20.79 18.63 20.79C18.1 20.79 17.46 20.44 16.77 19.7C15.95 18.82 14.69 18.89 13.97 19.85L12.96 21.19C12.56 21.73 12.03 22 11.5 22C10.97 22 10.44 21.73 10.04 21.19L9.02002 19.84C8.31002 18.89 7.05999 18.82 6.23999 19.69L6.22998 19.7C5.09998 20.91 4.10002 21.09 3.52002 20.37C3.51002 20.36 3.5 20.34 3.5 20.33C3.14 19.56 3 18.48 3 16.96V7.04C3 5.52 3.14 4.44 3.5 3.67C3.5 3.66 3.50002 3.65 3.52002 3.64C4.09002 2.91 5.09998 3.09 6.22998 4.3L6.23999 4.31C7.05999 5.18 8.31002 5.11 9.02002 4.16L10.04 2.81C10.44 2.27 10.97 2 11.5 2C12.03 2 12.56 2.27 12.96 2.81L13.97 4.15C14.69 5.11 15.95 5.18 16.77 4.3C17.46 3.56 18.1 3.21 18.63 3.21C18.97 3.21 19.26 3.36 19.48 3.64C19.5 3.65 19.5 3.66 19.5 3.67C19.86 4.44 20 5.52 20 7.04Z" />
<path d="M16 11H8C7.59 11 7.25 10.66 7.25 10.25C7.25 9.84 7.59 9.5 8 9.5H16C16.41 9.5 16.75 9.84 16.75 10.25C16.75 10.66 16.41 11 16 11Z" />
<path d="M14 14.5H8C7.59 14.5 7.25 14.16 7.25 13.75C7.25 13.34 7.59 13 8 13H14C14.41 13 14.75 13.34 14.75 13.75C14.75 14.16 14.41 14.5 14 14.5Z" />
</svg>
